svg/us/ny/cumberland_head.svg

<svg version="1" xmlns="http://www.w3.org/2000/svg" width="499.999" height="283.002"><path fill="#DC2127" d="M0 .5h153.999v282.502H0zM346 0h153.999v282.502H346z"/><path fill="#FFF" d="M153.999 0H346v282.502H153.999z"/><g fill="#016752"><path d="M243.695 268.088c4.237-2.792 7.964-3.724 13.726-4.654 5.763-.931 11.864-2.481 15.083-3.258 3.22-.776-10.845 3.723-14.404 4.654-3.559.931-14.405 3.258-14.405 3.258zm23.217-8.223c-1.186-6.671 1.694-13.652 8.304-16.444 1.525 4.808-3.219 13.031-8.304 16.444zm11.16-3.471c-3.534-5.526 2.447-12.654 6.829-16.148 2.009 3.329-1.55 13.258-6.829 16.148zm10.363-4.286c-3.777-4.739.678-13.031 5.424-16.289 1.863 4.654-.001 13.032-5.424 16.289zm10.366-5.926c-3.418-4.469-1.045-11.449 3.87-15.948 3.558 3.723.508 11.79-3.87 15.948zm8.276-6.019c-2.881-4.188.678-14.273 5.254-17.065 2.033 3.722.508 14.272-5.254 17.065zm6.61-1.552c-.848-6.05 10.678-12.722 15.422-12.566-.509 4.965-5.424 10.394-15.422 12.566zm-6.44 6.827c5.422-5.12 15.929-5.12 19.657-4.033-1.016 2.947-13.386 9.461-19.657 4.033z"/><path d="M299.789 250.557c7.626-1.861 12.542-3.413 17.117.931-3.219 3.723-15.592 2.636-17.117-.931zm-10.845 4.5c7.286-3.569 16.099 1.706 17.454 4.809-8.133 3.102-17.624-4.034-17.454-4.809zm-10 5.119c6.609-2.327 14.235.776 17.286 4.188-3.559 1.551-12.879 3.258-17.286-4.188zm-9.15 2.637c7.626-.775 14.943 4.509 16.538 7.529-9.761.848-13.487-1.788-16.538-7.529zm-2.457 5.275c-4.236-2.792-7.965-3.724-13.727-4.654-5.763-.931-11.864-2.481-15.083-3.258s10.846 3.723 14.406 4.654c3.558.931 14.404 3.258 14.404 3.258zm-23.218-8.223c1.187-6.671-1.694-13.652-8.303-16.444-1.526 4.808 3.219 13.031 8.303 16.444zm-11.16-3.471c3.534-5.526-2.447-12.654-6.829-16.148-2.009 3.329 1.55 13.258 6.829 16.148zm-10.363-4.286c3.778-4.739-.677-13.031-5.423-16.289-1.863 4.654 0 13.032 5.423 16.289zm-10.366-5.926c3.418-4.469 1.044-11.449-3.87-15.948-3.558 3.723-.508 11.79 3.87 15.948zm-8.276-6.019c2.881-4.188-.678-14.273-5.253-17.065-2.034 3.722-.509 14.272 5.253 17.065zm-6.609-1.552c.847-6.05-10.678-12.722-15.422-12.566.509 4.965 5.424 10.394 15.422 12.566zm6.44 6.827c-5.423-5.12-15.929-5.12-19.658-4.033 1.017 2.947 13.387 9.461 19.658 4.033z"/><path d="M211.242 250.557c-7.626-1.861-12.542-3.413-17.118.931 3.221 3.723 15.593 2.636 17.118-.931zm10.845 4.5c-7.287-3.569-16.1 1.706-17.455 4.809 8.135 3.102 17.624-4.034 17.455-4.809zm10 5.119c-6.609-2.327-14.235.776-17.286 4.188 3.559 1.551 12.88 3.258 17.286-4.188zm9.151 2.637c-7.626-.775-14.944 4.509-16.539 7.529 9.76.848 13.489-1.788 16.539-7.529z"/></g><path fill="#4690CE" d="M200.999 83.001s-22.333 16.666-23 19.333c0 0-10.333 37 21.333 44 0 0 49.667 12.334 56.667 36.667 0 0 2.999 19.667 15.333 22.667 0 0 7 3 8 7 0 0 3.666 4.999 8 5.666 0 0 30.668 7.666 25.334-34 0 0 5.666-64.333 3.333-73.333 0 0-14.666-25.667-16.333-33 0 0-16.667-16-24.667-18 0 0-9.666-8-11.333-16.333 0 0-11.667-17.333-33-21 0 0-22 6.667-24 12.333 0 0-7.667 38-5.667 48z"/><path fill="#6ABD45" d="M176.624 120c-.219-1.834-.271-3.554-.292-5.667-.04-4.152.915-8.364 1.417-12 .375-2.723 22.792-19.209 22.792-19.209-2-10 5.958-48.125 5.958-48.125 2-5.667 24.167-12.333 24.167-12.333s6.666 1 8 2.333c0 0-.333 10.333-11.667 9 0 0-9.334.333-9.667 17 0 0-4.333 4.333-1.667 10 0 0 2.667 3 2.667 5.333 0 0 1 22-1.667 28 0 0-3 4-5 4.667L189 98.333s-3 18.333-1.667 20c0 0-2.333 8.833-9.333 9.167-.001 0-.882-3.354-1.376-7.5z"/><path fill="#0A8141" d="M232.958 33.542s6.667-10.833 8.167 2.167c0 0 2.833 11.333 8.167.667 0 0 1.667-1.5 1.333 6.167 0 0 3.168-.666 2.5 9.667l2.334.167.666 6.333 11 10.833-.166 4.167 16.832 1.833 3.5 5.5.834 4.5 3.166 5v7.5l15 17.833 2.5 17.833-2.5 6.833-1.832.167v3.5l-1.668 3.667-1.666 3.166 2 20.5 1.834 18.5s-7.502 19.168-11.168 21.834c0 0-29.166-16.334-32.5-44.334l-9.832-12.332-3.167-17-5.833-5.667.667-7.833-7.167-7.667-1.333-6.5-4.167-1.167-2.833-2.667-2.667-2.667-5.833 2.333-4.333.5-9.333 4.5s-14.708 8.958-18.542 6.292l.259-5.377.241-4.998 1.458-9.917 21.583.167 6.167-4 .5-16.833.458-12.958-2.667-2.833-.417-9.5 6.125 1.125s-.833 4.834 3.833 6.667l7.833-7.333.667-18.335z"/></svg>

<svg version="1" xmlns="http://www.w3.org/2000/svg" width="499.999" height="283.002"><path fill="#DC2127" d="M0 .5h153.999v282.502H0zM346 0h153.999v282.502H346z"/><path fill="#FFF" d="M153.999 0H346v282.502H153.999z"/><g fill="#016752"><path d="M243.695 268.088c4.237-2.792 7.964-3.724 13.726-4.654 5.763-.931 11.864-2.481 15.083-3.258 3.22-.776-10.845 3.723-14.404 4.654-3.559.931-14.405 3.258-14.405 3.258zM266.912 259.865c-1.186-6.671 1.694-13.652 8.304-16.444 1.525 4.808-3.219 13.031-8.304 16.444zM278.072 256.394c-3.534-5.526 2.447-12.654 6.829-16.148 2.009 3.329-1.55 13.258-6.829 16.148zM288.435 252.108c-3.777-4.739.678-13.031 5.424-16.289 1.863 4.654-.001 13.032-5.424 16.289zM298.801 246.182c-3.418-4.469-1.045-11.449 3.87-15.948 3.558 3.723.508 11.79-3.87 15.948zM307.077 240.163c-2.881-4.188.678-14.273 5.254-17.065 2.033 3.722.508 14.272-5.254 17.065zM313.687 238.611c-.848-6.05 10.678-12.722 15.422-12.566-.509 4.965-5.424 10.394-15.422 12.566zM307.247 245.438c5.422-5.12 15.929-5.12 19.657-4.033-1.016 2.947-13.386 9.461-19.657 4.033z"/><path d="M299.789 250.557c7.626-1.861 12.542-3.413 17.117.931-3.219 3.723-15.592 2.636-17.117-.931zM288.944 255.057c7.286-3.569 16.099 1.706 17.454 4.809-8.133 3.102-17.624-4.034-17.454-4.809zM278.944 260.176c6.609-2.327 14.235.776 17.286 4.188-3.559 1.551-12.879 3.258-17.286-4.188zM269.794 262.813c7.626-.775 14.943 4.509 16.538 7.529-9.761.848-13.487-1.788-16.538-7.529zM267.337 268.088c-4.236-2.792-7.965-3.724-13.727-4.654-5.763-.931-11.864-2.481-15.083-3.258s10.846 3.723 14.406 4.654c3.558.931 14.404 3.258 14.404 3.258zM244.119 259.865c1.187-6.671-1.694-13.652-8.303-16.444-1.526 4.808 3.219 13.031 8.303 16.444zM232.959 256.394c3.534-5.526-2.447-12.654-6.829-16.148-2.009 3.329 1.55 13.258 6.829 16.148zM222.596 252.108c3.778-4.739-.677-13.031-5.423-16.289-1.863 4.654 0 13.032 5.423 16.289zM212.23 246.182c3.418-4.469 1.044-11.449-3.87-15.948-3.558 3.723-.508 11.79 3.87 15.948zM203.954 240.163c2.881-4.188-.678-14.273-5.253-17.065-2.034 3.722-.509 14.272 5.253 17.065zM197.345 238.611c.847-6.05-10.678-12.722-15.422-12.566.509 4.965 5.424 10.394 15.422 12.566zM203.785 245.438c-5.423-5.12-15.929-5.12-19.658-4.033 1.017 2.947 13.387 9.461 19.658 4.033z"/><path d="M211.242 250.557c-7.626-1.861-12.542-3.413-17.118.931 3.221 3.723 15.593 2.636 17.118-.931zM222.087 255.057c-7.287-3.569-16.1 1.706-17.455 4.809 8.135 3.102 17.624-4.034 17.455-4.809zM232.087 260.176c-6.609-2.327-14.235.776-17.286 4.188 3.559 1.551 12.88 3.258 17.286-4.188zM241.238 262.813c-7.626-.775-14.944 4.509-16.539 7.529 9.76.848 13.489-1.788 16.539-7.529z"/></g><path fill="#4690CE" d="M200.999 83.001s-22.333 16.666-23 19.333c0 0-10.333 37 21.333 44 0 0 49.667 12.334 56.667 36.667 0 0 2.999 19.667 15.333 22.667 0 0 7 3 8 7 0 0 3.666 4.999 8 5.666 0 0 30.668 7.666 25.334-34 0 0 5.666-64.333 3.333-73.333 0 0-14.666-25.667-16.333-33 0 0-16.667-16-24.667-18 0 0-9.666-8-11.333-16.333 0 0-11.667-17.333-33-21 0 0-22 6.667-24 12.333 0 0-7.667 38-5.667 48z"/><path fill="#6ABD45" d="M176.624 120c-.219-1.834-.271-3.554-.292-5.667-.04-4.152.915-8.364 1.417-12 .375-2.723 22.792-19.209 22.792-19.209-2-10 5.958-48.125 5.958-48.125 2-5.667 24.167-12.333 24.167-12.333s6.666 1 8 2.333c0 0-.333 10.333-11.667 9 0 0-9.334.333-9.667 17 0 0-4.333 4.333-1.667 10 0 0 2.667 3 2.667 5.333 0 0 1 22-1.667 28 0 0-3 4-5 4.667L189 98.333s-3 18.333-1.667 20c0 0-2.333 8.833-9.333 9.167-.001 0-.882-3.354-1.376-7.5z"/><g><path fill="#0A8141" d="M232.958 33.542s6.667-10.833 8.167 2.167c0 0 2.833 11.333 8.167.667 0 0 1.667-1.5 1.333 6.167 0 0 3.168-.666 2.5 9.667l2.334.167.666 6.333 11 10.833-.166 4.167 16.832 1.833 3.5 5.5.834 4.5 3.166 5v7.5l15 17.833 2.5 17.833-2.5 6.833-1.832.167v3.5l-1.668 3.667-1.666 3.166 2 20.5 1.834 18.5s-7.502 19.168-11.168 21.834c0 0-29.166-16.334-32.5-44.334l-9.832-12.332-3.167-17-5.833-5.667.667-7.833-7.167-7.667-1.333-6.5-4.167-1.167-2.833-2.667-2.667-2.667-5.833 2.333-4.333.5-9.333 4.5s-14.708 8.958-18.542 6.292l.259-5.377.241-4.998 1.458-9.917 21.583.167 6.167-4 .5-16.833.458-12.958-2.667-2.833-.417-9.5 6.125 1.125s-.833 4.834 3.833 6.667l7.833-7.333.667-18.335z"/></g></svg>
